X: 600
M: C
L: 1/16
K: G
V: 1
|:\
|:\
d2f2e2g2 f2a2g2b2 | d2f2e2g2 fga2 f2d2 |
defg efga fgab gabg | defd efge fga2 f2d2 |\
gab2 g2e2 fga2 f2d2 | efg2 d2B2 A3GF2D2 |\
V: 2 clef=bass middle=d
|:\
|:\
d4z4 d4z4 | d4z4 d4z4 |\
d4A4 d4g4 | f4   e4   d4 z4 |
g4e4 d4z4 | g4z4 f4z4 |\
g4z4 g4z4 | c'bag d'2d2 g4z4 :|

